src/img/Vector.svg

<svg width="49.000000" height="49.000000" viewBox="0 0 49 49" fill="none" xmlns="http://www.w3.org/2000/svg" xmlns:xlink="http://www.w3.org/1999/xlink">
	<desc>
			Created with Pixso.
	</desc>
	<defs/>
	<path id="Vector" d="M8.07227 21.002C8.47656 21.4844 8.41357 22.2031 7.93115 22.6074L4.63623 25.3721C4.42236 25.5508 4.16309 25.6387 3.90479 25.6387C3.57959 25.6387 3.25684 25.5 3.03174 25.2314L0.266602 21.9365C-0.138184 21.4551 -0.0751953 20.7373 0.406738 20.332C0.889648 19.9287 1.60693 19.9912 2.01221 20.4727L2.98389 21.6309C3.60107 16.9209 5.73486 12.5664 9.1499 9.15234C9.59473 8.70703 10.3164 8.70703 10.7612 9.15234C11.2061 9.59668 11.2061 10.3174 10.7612 10.7637C7.71631 13.8076 5.81299 17.6865 5.25146 21.8828L6.46777 20.8623C6.94971 20.458 7.66699 20.5215 8.07227 21.002ZM25.3726 44.3643C25.7764 44.8457 25.7134 45.5645 25.2314 45.9688L21.9365 48.7334C21.7231 48.9121 21.4634 49 21.2051 49C20.8804 49 20.5576 48.8613 20.332 48.5928C19.9277 48.1113 19.9907 47.3926 20.4727 46.9883L21.6401 46.0098C16.9277 45.3926 12.5693 43.2656 9.15186 39.8486C8.70703 39.4033 8.70703 38.6826 9.15186 38.2373C9.59668 37.792 10.3184 37.792 10.7627 38.2373C13.8091 41.2842 17.688 43.1904 21.8857 43.752L20.8633 42.5322C20.4585 42.0508 20.5215 41.332 21.0034 40.9277C21.4868 40.5234 22.2046 40.5869 22.6089 41.0684L25.3726 44.3643ZM48.5928 28.668C48.3794 28.8467 48.1196 28.9346 47.8613 28.9346C47.5356 28.9346 47.2139 28.7959 46.9883 28.5273L46.0098 27.3623C45.3936 32.0742 43.2661 36.4316 39.8491 39.8477C39.626 40.0713 39.3354 40.1816 39.0439 40.1816C38.752 40.1816 38.4609 40.0703 38.2388 39.8477C37.7939 39.4033 37.7939 38.6816 38.2388 38.2373C41.2827 35.1924 43.1836 31.3154 43.7451 27.1201L42.5327 28.1367C42.0513 28.541 41.333 28.4785 40.9282 27.9961C40.5229 27.5137 40.5859 26.7959 41.0688 26.3906L44.3638 23.626C44.8462 23.2217 45.5635 23.2842 45.9683 23.7676L48.7334 27.0625C49.1377 27.5449 49.0752 28.2637 48.5928 28.668ZM23.627 4.63574C23.2227 4.1543 23.2856 3.43652 23.7676 3.03125L27.0625 0.265625C27.5449 -0.137695 28.2627 -0.0751953 28.6675 0.40625C29.0713 0.888672 29.0083 1.60742 28.5264 2.01172L27.3604 2.99023C32.0728 3.60645 36.4297 5.7334 39.8472 9.15039C40.292 9.5957 40.292 10.3174 39.8472 10.7617C39.624 10.9844 39.3335 11.0947 39.042 11.0947C38.75 11.0947 38.459 10.9834 38.2368 10.7617C35.1924 7.71777 31.3154 5.81738 27.1196 5.25586L28.1367 6.4668C28.5405 6.9502 28.4775 7.66797 27.9956 8.07227C27.7817 8.25098 27.5225 8.33887 27.2642 8.33887C26.939 8.33887 26.6162 8.2002 26.3901 7.93164L23.627 4.63574Z" fill="#FFFFFF" fill-opacity="1.000000" fill-rule="evenodd"/>
</svg>

<svg width="49" height="49" fill="none" xmlns="http://www.w3.org/2000/svg"><path d="M8.072 21.002a1.14 1.14 0 0 1-.14 1.605l-3.296 2.765a1.137 1.137 0 0 1-1.604-.14L.267 21.935a1.138 1.138 0 1 1 1.745-1.463l.972 1.158A21.528 21.528 0 0 1 9.15 9.152a1.139 1.139 0 1 1 1.611 1.612 19.268 19.268 0 0 0-5.51 11.119l1.217-1.02a1.14 1.14 0 0 1 1.604.139Zm17.3 23.362c.404.482.341 1.2-.14 1.605l-3.296 2.764a1.136 1.136 0 0 1-1.604-.14 1.139 1.139 0 0 1 .14-1.605l1.168-.978a21.539 21.539 0 0 1-12.488-6.161 1.14 1.14 0 0 1 1.61-1.612 19.277 19.277 0 0 0 11.124 5.515l-1.023-1.22a1.138 1.138 0 1 1 1.746-1.464l2.764 3.296Zm23.22-15.696a1.137 1.137 0 0 1-1.604-.14l-.978-1.166a21.522 21.522 0 0 1-6.16 12.486 1.131 1.131 0 0 1-.806.334 1.138 1.138 0 0 1-.805-1.944 19.27 19.27 0 0 0 5.506-11.118l-1.212 1.017a1.138 1.138 0 1 1-1.464-1.746l3.295-2.765a1.138 1.138 0 0 1 1.604.142l2.765 3.294a1.14 1.14 0 0 1-.14 1.606ZM23.628 4.636a1.139 1.139 0 0 1 .14-1.605L27.064.266a1.14 1.14 0 0 1 1.464 1.746l-1.167.978a21.528 21.528 0 0 1 12.487 6.16 1.14 1.14 0 0 1-1.61 1.612A19.267 19.267 0 0 0 27.12 5.256l1.017 1.21a1.14 1.14 0 0 1-1.747 1.466l-2.763-3.296Z" fill="#FFF" fill-rule="evenodd"/></svg>
